X: 13599
T: Flying, The
R: reel
M: 4/4
K: Aminor
eg|a2ab aged|egga ged2|e~A3 e~A3|1 3 BAGB A2:|
|:AB|c2cd cAGA|c2cd cAGA|c2cd cAGA|EDEG A2:|

